icons/bhi_desktop.svg

<svg xmlns="http://www.w3.org/2000/svg" viewBox="0 0 512 512" enable-background="new 0 0 512 512"><path fill="#010101" d="M458.7 0h-407.5c-27.7 0-51.2 23.5-51.2 51.2v307.2c0 27.7 23.5 57.6 51.2 57.6h108.8v64h192v-64h108.8c27.7 0 51.2-29.9 51.2-57.6v-307.2c-2.1-27.7-23.5-51.2-53.3-51.2zm-10.7 352h-384v-288h384v288z"/></svg>

<?xml version="1.0" encoding="utf-8"?>
<!-- Generator: Adobe Illustrator 19.2.0, SVG Export Plug-In . SVG Version: 6.00 Build 0)  -->
<svg version="1.1" id="Layer_1" xmlns="http://www.w3.org/2000/svg" xmlns:xlink="http://www.w3.org/1999/xlink" x="0px" y="0px"
	 viewBox="0 0 512 512" enable-background="new 0 0 512 512" xml:space="preserve">
<g id="tv_1_">
	<path fill="#010101" d="M458.7,0H51.2C23.5,0,0,23.5,0,51.2v307.2C0,386.1,23.5,416,51.2,416H160v64h192v-64h108.8
		c27.7,0,51.2-29.9,51.2-57.6V51.2C509.9,23.5,488.5,0,458.7,0z M448,352H64V64h384V352z"/>
</g>
</svg>
